FINK
CUT[TRAUTE HEIMATH MEINER LIEBEN]
REG[Europa, Mitteleuropa, Deutschland]
KEY[F0444  08  C 4/4]
MEL[3456  5_5_6567  +1_+3_
    +3_+1_  5_3_4_6_  2__
    +2_.7  +1_0+3+2_.7  +1_5_
    +3_+2_  +1_7_6_5#_  6__
    +17+16  5_.34342  1_0_ //] >>
FCT[Heimat - Lied]
